X: 01013
T: BUG IN A BUCKET
C: Bob McQuillen Jan '75
B: Bob's Note Book 1 #13
%R: jig
Z: 2019 John Chambers <jc:trillian.mit.edu>
M: 6/8
L: 1/8
K: G
BA \
| GBB Gcc | Bcd cBA | GBB Gcc | Bcd ABA |\
| GBB Gcc | Bcd cBA | Bcd dcB | AGF G :|
|: GF \
| EGG FAA | GAB AGF | EGG FAA | GAB A2B |\
| EGG FAA | GAB cBA | Bee BAG | AGF E :|
%%begintext align
%% BUZZ BUZZ BUZZ
%%endtext

%%sep 1 1 500

%%sep 1 1 500

